X:24
T:Carolan's Cup
R:carolan
C:Turlough O'Carolan (1670-1738)
Z:id:hn-carolan-24
M:3/4
L:1/8
Q:1/4=160
K:Bm
de | f3gfe | d2f2a2 | e4dB | A4fe | d2c2B2 | A2F2A2 | B2b2a2 | b2f2e2 |
f3gfe | d2f2a2 | e2gfed | c4fe | d2c2B2 | A2F2A2 | B6 | B4 :|
|: c2 | d3edc | d4f2 | a3baf | a4f2 | e3fed | e2f2a2 | b6- | b2f2a2|
b2a2fe | d2f2a2| e4dB | A4fe | d2c2B2 | A2F2A2 | B6 | B4 :|

